!!!OTL: Xiao nuxu
!!!ARE: Asia, China,ˇNingxia, Guyuan
!! I, 183
!!!SCT: C1426
!!!YEM: Copyright 1995, estate of Helmut Schaffrath.
**kern
*ICvox
*Ivox
*M2/4
*k[b-]
*F:
{4dd
16dd
16ff
16dd
16cc
=1
8a
16cc
16a
8.g
16a
=2
4dd
16dd
16ff
16dd
16cc
=3
4a
4a}
=4
{8a
16a
16cc
8dd
16dd
16cc
=5
16a
16a
16cc
16dd
4a
=6
8cc
16cc
16a
8.g
16f
=7
2d}
=8
{8a
16a
16cc
8dd
16dd
16cc
=9
16a
16a
16cc
16dd
4a
=10
8cc
16cc
16a
8.g
16f
=11
2d}
==
!!!AGN: Xiaodiao. FunÅ ku
!!!ONB: ESAC (Essen Associative Code) Database: HUANG
!!!AMT: simple duple
!!!AIN: vox
!!!EED: Helmut Schaffrath
!!!EEV: 1.0
*-
